brandFactory_export/2.Regular/Sombrilla playa _2Regular.svg

<?xml version="1.0" encoding="UTF-8"?>
<svg width="24px" height="24px" viewBox="0 0 24 24" version="1.1" xmlns="http://www.w3.org/2000/svg" xmlns:xlink="http://www.w3.org/1999/xlink">
    <title>2.Regular/Sombrilla playa _2Regular</title>
    <g id="Symbols" stroke="none" stroke-width="1" fill="none" fill-rule="evenodd">
        <g id="2.Regular/Sombrilla-playa-_2Regular" fill="#5CB615" fill-rule="nonzero">
            <path d="M21.9512605,5.54285714 L20.1831933,6.61176471 C17.2016807,3.35798319 14.1630252,2.2487395 11.8470588,1.9697479 C13.6521008,1.42184874 15.3764706,1.33781513 17,1.73445378 C18.8352941,2.18487395 20.5327731,3.2605042 22.0521008,4.93109244 C22.1294118,5.01512605 22.1663866,5.13613445 22.1563025,5.24033613 C22.1361345,5.36806723 22.0621849,5.4789916 21.9512605,5.54285714 L21.9512605,5.54285714 Z M9.28235294,3.42521008 C11,3.18991597 14.9764706,3.23361345 18.8991597,7.38487395 L13.5109244,10.6352941 C13.5142857,10.6352941 9.28235294,3.42521008 9.28235294,3.42521008 Z M7.47058824,14.2823529 C5.55462185,9.45546218 7.09747899,5.87563025 8.0789916,4.28907563 L12.2470606,11.3983193 C12.2504202,11.3983193 7.47058824,14.2823529 7.47058824,14.2823529 Z M3.99495798,16.3831933 C3.90084034,16.4403361 3.84705882,16.4907563 3.62184874,16.4268908 C3.50420168,16.3932773 3.41008403,16.3092437 3.35966387,16.194958 C2.50588235,14.1277311 2.28067227,12.1680672 2.69747899,10.3630252 C3.11428571,8.50756303 4.2,6.82016807 5.91092437,5.32436975 C5.02352941,7.5394958 4.46554622,10.9142857 6.18991597,15.0554622 L3.99495798,16.3831933 L3.99495798,16.3831933 Z M23.1613445,3.96302521 C21.4470588,2.07394958 19.4941176,0.847058824 17.3596639,0.322689076 C14.5563025,-0.36302521 11.5411765,0.164705882 8.37478992,1.87226891 L7.99831933,1.22689076 C7.78655462,0.877310924 7.33613445,0.756302521 6.98319328,0.957983193 C6.63697479,1.14621849 6.5092437,1.58319328 6.69747899,1.92941176 C6.70084034,1.93613445 6.70420168,1.9394958 6.70756303,1.94621849 L7.10420168,2.62184874 C3.87058824,4.66890756 1.89411765,7.16638655 1.2487395,10.0436975 C0.764705882,12.1344538 1.01008403,14.3865546 1.98151261,16.7327731 C2.18319328,17.2268908 2.60672269,17.6134454 3.16806723,17.805042 C3.37647059,17.8655462 3.57142857,17.8957983 3.75630252,17.8957983 C4.10252101,17.8957983 4.46218487,17.7983193 4.77142857,17.6168067 L12.989916,12.6554622 L19.2252101,23.287395 C19.4336134,23.6369748 19.8840336,23.7579832 20.2403361,23.5563025 C20.589916,23.3680672 20.7176471,22.9344538 20.5294118,22.5848739 L20.5193277,22.5647059 L14.2537815,11.8957983 L22.7378151,6.77647059 C23.2218487,6.48067227 23.5478992,6 23.6319328,5.42857143 C23.692437,4.89411765 23.5243697,4.35966387 23.1613445,3.96302521 L23.1613445,3.96302521 Z" id="Sombrilla-playa-_2Regular"></path>
        </g>
    </g>
</svg>

<svg width="24" height="24" viewBox="0 0 24 24" xmlns="http://www.w3.org/2000/svg"><path d="M21.951 5.543l-1.768 1.069c-2.981-3.254-6.02-4.363-8.336-4.642 1.805-.548 3.53-.632 5.153-.236 1.835.45 3.533 1.527 5.052 3.197a.414.414 0 01.104.31.422.422 0 01-.205.302zM9.282 3.425C11 3.19 14.976 3.234 18.9 7.385l-5.388 3.25c.003 0-4.229-7.21-4.229-7.21zM7.471 14.282c-1.916-4.827-.374-8.406.608-9.993l4.168 7.11c.003 0-4.776 2.883-4.776 2.883zm-3.476 2.101c-.094.057-.148.108-.373.044a.409.409 0 01-.262-.232c-.854-2.067-1.08-4.027-.663-5.832C3.114 8.508 4.2 6.82 5.911 5.324c-.887 2.215-1.445 5.59.279 9.731l-2.195 1.328zm19.166-12.42C21.447 2.073 19.494.847 17.36.323c-2.804-.686-5.819-.158-8.985 1.55l-.377-.646A.753.753 0 006.983.958a.718.718 0 00-.286.971l.01.017.397.676c-3.233 2.047-5.21 4.544-5.855 7.422-.484 2.09-.239 4.343.733 6.689.201.494.625.88 1.186 1.072.208.06.403.09.588.09.347 0 .706-.097 1.015-.278l8.219-4.962 6.235 10.632c.209.35.659.471 1.015.27a.715.715 0 00.29-.972l-.01-.02-6.266-10.67 8.484-5.119c.484-.295.81-.776.894-1.347a1.857 1.857 0 00-.47-1.466z" fill="#5CB615" fill-rule="nonzero"/></svg>
